Simply-Purple-Circles/scalable/apps/kalzium.svg

<svg xmlns="http://www.w3.org/2000/svg" width="48" height="48" viewBox="0 0 12.7 12.7"><path d="M6.34.07a6.29 6.29 0 0 0-6.29 6.3 6.29 6.29 0 0 0 6.3 6.28 6.29 6.29 0 0 0 6.28-6.29A6.29 6.29 0 0 0 6.34.07zM6.32 1l.01.01a5.4 5.4 0 0 1 5.4 5.4 5.4 5.4 0 0 1-5.4 5.41 5.4 5.4 0 0 1-5.41-5.4A5.4 5.4 0 0 1 6.32 1zm1.82 1.11a1.06 1.06 0 0 0-.47.14 1.06 1.06 0 0 0-.4 1.44 1.06 1.06 0 0 0 .13.19l-.55.97a1.59 1.59 0 0 0-1.29.12 1.59 1.59 0 0 0-.77 1.08H3.7a1.06 1.06 0 0 0-.1-.26 1.06 1.06 0 0 0-1.44-.4 1.06 1.06 0 0 0-.4 1.45 1.06 1.06 0 0 0 1.45.4 1.06 1.06 0 0 0 .46-.56l1.14.01a1.59 1.59 0 0 0 .17.45 1.59 1.59 0 0 0 .35.41l-.55.96a1.06 1.06 0 0 0-.79.1 1.06 1.06 0 0 0-.4 1.45 1.06 1.06 0 0 0 1.45.4A1.06 1.06 0 0 0 5.43 9a1.06 1.06 0 0 0-.11-.16l.56-.99a1.59 1.59 0 0 0 1.26-.13 1.59 1.59 0 0 0 .75-1h1.14a1.06 1.06 0 0 0 .08.18 1.06 1.06 0 0 0 1.44.4 1.06 1.06 0 0 0 .4-1.45 1.06 1.06 0 0 0-1.45-.4 1.06 1.06 0 0 0-.49.63l-1.1-.01a1.59 1.59 0 0 0-.18-.52 1.59 1.59 0 0 0-.32-.4l.55-.96a1.06 1.06 0 0 0 .76-.11 1.06 1.06 0 0 0 .4-1.45 1.06 1.06 0 0 0-.98-.53z" fill="#963996"/></svg>

<?xml version="1.0" encoding="UTF-8" standalone="no"?>
<svg
   xmlns:dc="http://purl.org/dc/elements/1.1/"
   xmlns:cc="http://creativecommons.org/ns#"
   xmlns:rdf="http://www.w3.org/1999/02/22-rdf-syntax-ns#"
   xmlns:svg="http://www.w3.org/2000/svg"
   xmlns="http://www.w3.org/2000/svg"
   xmlns:sodipodi="http://sodipodi.sourceforge.net/DTD/sodipodi-0.dtd"
   xmlns:inkscape="http://www.inkscape.org/namespaces/inkscape"
   width="48"
   height="48"
   viewBox="0 0 12.7 12.7"
   version="1.1"
   id="svg4"
   sodipodi:docname="kalzium.svg"
   inkscape:version="0.92.4 (5da689c313, 2019-01-14)">
  <metadata
     id="metadata10">
    <rdf:RDF>
      <cc:Work
         rdf:about="">
        <dc:format>image/svg+xml</dc:format>
        <dc:type
           rdf:resource="http://purl.org/dc/dcmitype/StillImage" />
        <dc:title></dc:title>
      </cc:Work>
    </rdf:RDF>
  </metadata>
  <defs
     id="defs8" />
  <sodipodi:namedview
     pagecolor="#ffffff"
     bordercolor="#666666"
     borderopacity="1"
     objecttolerance="10"
     gridtolerance="10"
     guidetolerance="10"
     inkscape:pageopacity="0"
     inkscape:pageshadow="2"
     inkscape:window-width="1087"
     inkscape:window-height="480"
     id="namedview6"
     showgrid="false"
     inkscape:zoom="4.9166667"
     inkscape:cx="2.1355932"
     inkscape:cy="24"
     inkscape:window-x="0"
     inkscape:window-y="25"
     inkscape:window-maximized="0"
     inkscape:current-layer="svg4" />
  <path
     d="M 6.34,0.07 A 6.29,6.29 0 0 0 0.05,6.37 6.29,6.29 0 0 0 6.35,12.65 6.29,6.29 0 0 0 12.63,6.36 6.29,6.29 0 0 0 6.34,0.07 Z M 6.32,1 6.33,1.01 a 5.4,5.4 0 0 1 5.4,5.4 5.4,5.4 0 0 1 -5.4,5.41 A 5.4,5.4 0 0 1 0.92,6.42 5.4,5.4 0 0 1 6.32,1 Z M 8.14,2.11 A 1.06,1.06 0 0 0 7.67,2.25 1.06,1.06 0 0 0 7.27,3.69 1.06,1.06 0 0 0 7.4,3.88 L 6.85,4.85 A 1.59,1.59 0 0 0 5.56,4.97 1.59,1.59 0 0 0 4.79,6.05 H 3.7 A 1.06,1.06 0 0 0 3.6,5.79 1.06,1.06 0 0 0 2.16,5.39 1.06,1.06 0 0 0 1.76,6.84 1.06,1.06 0 0 0 3.21,7.24 1.06,1.06 0 0 0 3.67,6.68 L 4.81,6.69 A 1.59,1.59 0 0 0 4.98,7.14 1.59,1.59 0 0 0 5.33,7.55 L 4.78,8.51 a 1.06,1.06 0 0 0 -0.79,0.1 1.06,1.06 0 0 0 -0.4,1.45 1.06,1.06 0 0 0 1.45,0.4 A 1.06,1.06 0 0 0 5.43,9 1.06,1.06 0 0 0 5.32,8.84 L 5.88,7.85 a 1.59,1.59 0 0 0 1.26,-0.13 1.59,1.59 0 0 0 0.75,-1 H 9.03 A 1.06,1.06 0 0 0 9.11,6.9 1.06,1.06 0 0 0 10.55,7.3 1.06,1.06 0 0 0 10.95,5.85 1.06,1.06 0 0 0 9.5,5.45 1.06,1.06 0 0 0 9.01,6.08 L 7.91,6.07 A 1.59,1.59 0 0 0 7.73,5.55 1.59,1.59 0 0 0 7.41,5.15 L 7.96,4.19 A 1.06,1.06 0 0 0 8.72,4.08 1.06,1.06 0 0 0 9.12,2.63 1.06,1.06 0 0 0 8.14,2.1 Z"
     id="path2"
     inkscape:connector-curvature="0"
     style="fill:#963996" />
</svg>
